X:7034
T:The Longest Night
R:lament, pipe tune
C:Brenda Stubbert
S:Tune of the Month, Feb. 1999
B:previously unpublished
A:<http://www.capebretonet.com/Music/Stubbert>
H:Composed for the people involved in the tragedy at Peggy's Cove, Swiss
Air Flight 111, Sept.1998.
N:Contacts ...
N:Recordings and bookings
N:..... <brenda@cranfordpub.com>
N:Tune books and related recordings
N:..... Cranford Publications - http://www.cranfordpub.com
H:Copyrights:Published by Stubbert Music (SOCAN)
O:England
L:1/8
Q:144
M:3/4
K:Amix
ed|c3 B A2|c e3 ag|f3 e d2|f a3 f2|e a3 c2|f3 e c2|c4 dc|B4 ed|
c3 B A2|c e3 ag|f3 e d2|f a3 f2|e a3 c2|e3 dB2|A6|A4:||
|:ag|f4 ed|f a3 f2|e a3 A2|c e3 ag|f4 ed|f a3 f2|ea3c2|[1B4 ag|
f4 ed|f a3 f2|e a3 A2|c e3 ed|c4 BA|G4 B2|A6|A4:|
[2B4 ed|c3 B A2|c e3 ag|f3 e d2|f a3 f2|e a3 c2|e3 dB2|A6|A4|]


